puzzled.svg

<svg clip-rule="evenodd" fill-rule="evenodd" stroke-linejoin="round" stroke-miterlimit="2" viewBox="0 0 36 36" xmlns="http://www.w3.org/2000/svg"><path d="m36 18c0 9.941-8.059 18-18 18-9.94 0-18-8.059-18-18 0-9.94 8.06-18 18-18 9.941 0 18 8.06 18 18" fill="#ffcc4d" fill-rule="nonzero"/><g fill="#664500"><ellipse cx="11.5" cy="16.5" rx="2.5" ry="3.5" transform="matrix(1 0 0 .678571 1.02833 6.17857)"/><ellipse cx="11.5" cy="16.5" rx="2.5" ry="3.5" transform="matrix(1 0 0 .678571 11.9752 6.17857)"/><path d="m25 26h-14c-.552 0-1-.447-1-1s.448-1 1-1h14c.553 0 1 .447 1 1s-.447 1-1 1z" fill-rule="nonzero" transform="matrix(.999048 .0436194 -.0436194 .999048 1.17574 -1.11494)"/></g><path d="m17 27c-1.657 0-3-1.343-3-3v-4c0-1.657 1.343-3 3-3 .603-.006 6-1 6-5 0-2-2-4-5-4-2.441 0-4 2-4 3 0 1.657-1.343 3-3 3s-3-1.343-3-3c0-4.878 4.58-9 10-9 8 0 11 5.982 11 11 0 4.145-2.277 7.313-6.413 8.92-.9.351-1.79.587-2.587.747v1.333c0 1.657-1.343 3-3 3z" fill="#be1931" fill-rule="nonzero" transform="matrix(.543319 0 0 .545455 20.2437 -1.09091)"/><circle cx="17" cy="32" fill="#be1931" r="3" transform="matrix(.543319 0 0 .545455 20.2437 -1.09091)"/></svg>

<svg width="100%" height="100%" viewBox="0 0 36 36" version="1.1" xmlns="http://www.w3.org/2000/svg" xmlns:xlink="http://www.w3.org/1999/xlink" xml:space="preserve" xmlns:serif="http://www.serif.com/" fill-rule="evenodd" clip-rule="evenodd" stroke-linejoin="round" stroke-miterlimit="2"><path d="M36,18C36,27.941 27.941,36 18,36C8.06,36 0,27.941 0,18C0,8.06 8.06,0 18,0C27.941,0 36,8.06 36,18" fill="rgb(255,204,77)" fill-rule="nonzero"/><g transform="matrix(1,0,0,0.678571,1.02833,6.17857)"><ellipse cx="11.5" cy="16.5" rx="2.5" ry="3.5" fill="rgb(102,69,0)"/></g><g transform="matrix(1,0,0,0.678571,11.9752,6.17857)"><ellipse cx="11.5" cy="16.5" rx="2.5" ry="3.5" fill="rgb(102,69,0)"/></g><g><path d="M25,26L11,26C10.448,26 10,25.553 10,25C10,24.447 10.448,24 11,24L25,24C25.553,24 26,24.447 26,25C26,25.553 25.553,26 25,26Z" fill="rgb(102,69,0)" fill-rule="nonzero" transform="matrix(0.999048,0.0436194,-0.0436194,0.999048,1.17574,-1.11494)"/></g><g><path d="M17,27C15.343,27 14,25.657 14,24L14,20C14,18.343 15.343,17 17,17C17.603,16.994 23,16 23,12C23,10 21,8 18,8C15.559,8 14,10 14,11C14,12.657 12.657,14 11,14C9.343,14 8,12.657 8,11C8,6.122 12.58,2 18,2C26,2 29,7.982 29,13C29,17.145 26.723,20.313 22.587,21.92C21.687,22.271 20.797,22.507 20,22.667L20,24C20,25.657 18.657,27 17,27Z" fill="rgb(190,25,49)" fill-rule="nonzero" transform="matrix(0.543319,0,0,0.545455,20.2437,-1.09091)"/></g><g transform="matrix(0.543319,0,0,0.545455,20.2437,-1.09091)"><circle cx="17" cy="32" r="3" fill="rgb(190,25,49)"/></g></svg>
